X: 27
T:Winster Galop
% Nottingham Music Database
S:Eric Foxley
M:4/4
L:1/4
K:G
P:A
d|"G"GB/2B/2 GB|"G"GB d2|"Am"A3/2c/2 "D7"BA|"G"GB "G7"d2|"C"ce fe|"G"dB "Em"d2\
|"Am"A3/2c/2 "D7"BA|"G"G2 G:|
P:B
d|"G"gf ed|"G"gf ed|"G"gf ed|"Am"cB A2|"D"fe d2|"D"fe d2|"D7"d2 A3/2c/2|\
"G"BG G:|


